;FLAVOR:Marlin
;TIME:3034
;Filament used: 2.48913m, 0m
;Layer height: 0.3
;MINX:256.954
;MINY:78.345
;MINZ:0.3
;MAXX:313.046
;MAXY:155.55
;MAXZ:15.5
;Generated with Cura_SteamEngine mb-master-20191116
T0
M140 S70
M105
M190 S70
M104 S220
M105
M109 S220
M82 ;absolute extrusion mode
;Sliced at: Fri 16-02-2024 15:46:32
G21 ;metric values
M107
G28
M420 S1
G90 ;absolute positioning
G92 E0; reset extruder distance
G1 X0 Y0 Z5 F5000 ;move nozzle up 5mm for safe homing
G29;ABL
M500
M82 ;set extruder to absolute mode
M107 ;start with the fan off
G1 X0 Y0 Z15.0 F5000 ;move the platform down 15mm
G92 E0 ;zero the extruded length
G1 F200 E3 ;extrude 3mm of feed stock
G1 F200 E0 ;Retract
G4 S2 ;Wait for material to fall
G1 F200 E3
G92 E0 ;zero the extruded length again
M117 Printing...
G92 E0
;WIPE
G91
G1 Z-0.5
G1 X -20 F3000
G1 X40
G1 X-20
G1 Z0.5
G90

G92 E0
G1 F2400 E-1
;LAYER_COUNT:50
;LAYER:0
M107
G1 F600 Z0.8
G0 F4800 X259.308 Y90.858 Z0.8
;TYPE:SKIRT
G1 F600 Z0.3
G1 F2400 E0.02495
G1 F1080 X259.423 Y90.547 E0.03983
G1 X259.561 Y90.256 E0.05429
G1 X259.916 Y89.655 E0.08564
G1 X260.122 Y89.373 E0.10132
G1 X260.366 Y89.099 E0.11779
G1 X260.646 Y88.844 E0.1348
G1 X260.853 Y88.713 E0.1458
G1 X261.145 Y88.555 E0.1607
G1 X261.496 Y88.411 E0.17774
G1 X261.938 Y88.339 E0.19785
G1 X262.329 Y88.325 E0.21541
G1 X262.707 Y88.352 E0.23243
G1 X263.056 Y88.451 E0.24872
G1 X263.563 Y88.652 E0.27321
G1 X263.671 Y88.698 E0.27848
G1 X263.738 Y88.73 E0.28181
G1 X263.581 Y88.49 E0.29469
G1 X263.416 Y88.173 E0.31073
G1 X263.27 Y87.808 E0.32839
G1 X263.167 Y87.443 E0.34542
G1 X263.142 Y87.201 E0.35634
G1 X263.133 Y86.938 E0.36816
G1 X263.16 Y86.56 E0.38517
G1 X263.263 Y86.202 E0.4019
G1 X263.401 Y85.86 E0.41846
G1 X263.579 Y85.526 E0.43545
G1 X263.712 Y85.353 E0.44525
G1 X263.925 Y85.108 E0.45983
G1 X264.168 Y84.876 E0.47491
G1 X264.719 Y84.441 E0.50643
G1 X265.015 Y84.251 E0.52223
G1 X265.344 Y84.083 E0.53881
G1 X265.698 Y83.947 E0.55584
G1 X265.926 Y83.902 E0.56628
G1 X266.25 Y83.859 E0.58095
G1 X266.629 Y83.849 E0.59797
G1 X267.073 Y83.941 E0.61833
G1 X267.445 Y84.069 E0.636
G1 X267.788 Y84.229 E0.65299
G1 X268.08 Y84.448 E0.66938
G1 X268.201 Y84.559 E0.67675
G1 X268.174 Y84.445 E0.68201
G1 X268.124 Y84.055 E0.69967
G1 X268.115 Y83.676 E0.71669
G1 X268.149 Y83.449 E0.727
G1 X268.204 Y83.192 E0.7388
G1 X268.322 Y82.832 E0.75581
G1 X268.507 Y82.512 E0.77241
G1 X268.724 Y82.213 E0.78899
G1 X268.978 Y81.931 E0.80604
G1 X269.16 Y81.788 E0.81643
G1 X269.427 Y81.604 E0.83099
G1 X269.715 Y81.442 E0.84583
G1 X270.359 Y81.155 E0.87748
G1 X270.683 Y81.046 E0.89283
G1 X271.039 Y80.963 E0.90925
G1 X271.415 Y80.916 E0.92626
G1 X271.656 Y80.928 E0.93709
G1 X271.982 Y80.966 E0.95183
G1 X272.352 Y81.049 E0.96886
G1 X272.765 Y81.251 E0.9895
G1 X273.094 Y81.468 E1.0072
G1 X273.387 Y81.709 E1.02423
G1 X273.535 Y81.892 E1.0348
G1 X273.548 Y81.657 E1.04537
G1 X273.609 Y81.283 E1.06238
G1 X273.688 Y81.053 E1.0733
G1 X273.79 Y80.813 E1.08501
G1 X273.975 Y80.482 E1.10204
G1 X274.214 Y80.206 E1.11843
G1 X274.484 Y79.952 E1.13508
G1 X274.785 Y79.723 E1.15206
G1 X274.993 Y79.615 E1.16258
G1 X275.291 Y79.484 E1.1772
G1 X275.596 Y79.381 E1.19165
G1 X276.277 Y79.218 E1.22309
G1 X276.623 Y79.17 E1.23878
G1 X276.994 Y79.155 E1.25545
G1 X277.372 Y79.18 E1.27246
G1 X277.608 Y79.237 E1.28336
G1 X277.919 Y79.335 E1.298
G1 X278.266 Y79.487 E1.31501
G1 X278.63 Y79.759 E1.33542
G1 X278.914 Y80.034 E1.35317
G1 X279.157 Y80.325 E1.37019
G1 X279.209 Y80.422 E1.37513
G1 X279.234 Y80.307 E1.38042
G1 X279.354 Y79.947 E1.39745
G1 X279.47 Y79.731 E1.40846
G1 X279.61 Y79.509 E1.42025
G1 X279.845 Y79.211 E1.43729
G1 X280.126 Y78.977 E1.45371
G1 X280.431 Y78.771 E1.47023
G1 X280.765 Y78.593 E1.48723
G1 X280.978 Y78.523 E1.49729
G1 X281.292 Y78.44 E1.51188
G1 X281.739 Y78.38 E1.53213
G1 X282.806 Y78.372 E1.58004
G1 X283.183 Y78.409 E1.59705
G1 X283.622 Y78.561 E1.61791
G1 X283.915 Y78.707 E1.63261
G1 X284.234 Y78.911 E1.64961
G1 X284.552 Y79.238 E1.67009
G1 X284.789 Y79.554 E1.68783
G1 X284.983 Y79.879 E1.70482
G1 X285.007 Y79.949 E1.70814
G1 X285.037 Y79.871 E1.7119
G1 X285.209 Y79.534 E1.72888
G1 X285.352 Y79.344 E1.73956
G1 X285.523 Y79.145 E1.75134
G1 X285.799 Y78.885 E1.76837
G1 X286.139 Y78.681 E1.78617
G1 X286.517 Y78.508 E1.80484
G1 X286.876 Y78.388 E1.82183
G1 X287.273 Y78.345 E1.83976
G1 X287.802 Y78.347 E1.86352
G1 X287.954 Y78.354 E1.87035
G1 X288.495 Y78.402 E1.89474
G1 X288.912 Y78.49 E1.91387
G1 X289.223 Y78.595 E1.92861
G1 X289.567 Y78.753 E1.94561
G1 X289.744 Y78.873 E1.95521
G1 X289.964 Y79.042 E1.96767
G1 X290.238 Y79.303 E1.98466
G1 X290.452 Y79.615 E2.00165
G1 X290.639 Y79.962 E2.01934
G1 X290.782 Y80.313 E2.03636
G1 X290.802 Y80.421 E2.04129
G1 X290.86 Y80.321 E2.04648
G1 X291.083 Y80.014 E2.06352
G1 X291.264 Y79.84 E2.0748
G1 X291.466 Y79.671 E2.08662
G1 X291.781 Y79.46 E2.10365
G1 X292.121 Y79.323 E2.1201
G1 X292.474 Y79.221 E2.1366
G1 X292.847 Y79.154 E2.15362
G1 X293.072 Y79.153 E2.16372
G1 X293.403 Y79.171 E2.17861
G1 X293.729 Y79.219 E2.1934
G1 X294.409 Y79.384 E2.22482
G1 X294.735 Y79.497 E2.24031
G1 X295.069 Y79.65 E2.25681
G1 X295.395 Y79.843 E2.27382
G1 X295.583 Y80.005 E2.28496
G1 X295.815 Y80.234 E2.2996
G1 X296.056 Y80.527 E2.31663
G1 X296.251 Y80.923 E2.33645
G1 X296.381 Y81.296 E2.35419
G1 X296.467 Y81.665 E2.3712
G1 X296.472 Y81.894 E2.38149
G1 X296.634 Y81.706 E2.39263
G1 X296.91 Y81.447 E2.40963
G1 X297.235 Y81.251 E2.42667
G1 X297.552 Y81.103 E2.44237
G1 X297.91 Y80.98 E2.45937
G1 X298.236 Y80.936 E2.47414
G1 X298.564 Y80.922 E2.48888
G1 X298.942 Y80.945 E2.50589
G1 X299.262 Y81.03 E2.52075
G1 X299.76 Y81.213 E2.54458
G1 X299.894 Y81.269 E2.5511
G1 X300.383 Y81.495 E2.57529
G1 X300.75 Y81.721 E2.59464
G1 X301.006 Y81.925 E2.60934
G1 X301.276 Y82.191 E2.62636
G1 X301.397 Y82.358 E2.63561
G1 X301.549 Y82.594 E2.64822
G1 X301.72 Y82.933 E2.66527
G1 X301.817 Y83.309 E2.6827
G1 X301.874 Y83.7 E2.70045
G1 X301.889 Y84.079 E2.71748
G1 X301.829 Y84.434 E2.73364
G1 X301.796 Y84.553 E2.73919
G1 X301.904 Y84.461 E2.74556
G1 X302.226 Y84.236 E2.7632
G1 X302.558 Y84.052 E2.78024
G1 X302.787 Y83.973 E2.79112
G1 X303.042 Y83.904 E2.80298
G1 X303.416 Y83.845 E2.81998
G1 X303.791 Y83.864 E2.83684
G1 X304.154 Y83.921 E2.85334
G1 X304.52 Y84.019 E2.87035
G1 X304.715 Y84.107 E2.87996
G1 X305.007 Y84.261 E2.89478
G1 X305.29 Y84.446 E2.90996
G1 X305.839 Y84.884 E2.94149
G1 X306.091 Y85.129 E2.95728
G1 X306.326 Y85.407 E2.97362
G1 X306.538 Y85.721 E2.99063
G1 X306.635 Y85.933 E3.0011
G1 X306.751 Y86.24 E3.01584
G1 X306.847 Y86.606 E3.03283
G1 X306.858 Y87.059 E3.05317
G1 X306.818 Y87.451 E3.07086
G1 X306.74 Y87.822 E3.08789
G1 X306.594 Y88.154 E3.10417
G1 X306.332 Y88.617 E3.12806
G1 X306.275 Y88.711 E3.133
G1 X306.262 Y88.73 E3.13403
G1 X306.584 Y88.578 E3.15002
G1 X306.925 Y88.457 E3.16626
G1 X307.307 Y88.363 E3.18393
G1 X307.682 Y88.312 E3.20092
G1 X307.927 Y88.321 E3.21193
G1 X308.191 Y88.349 E3.22385
G1 X308.561 Y88.428 E3.24084
G1 X308.886 Y88.571 E3.25678
G1 X309.205 Y88.751 E3.27323
G1 X309.513 Y88.971 E3.29022
G1 X309.685 Y89.145 E3.30121
G1 X309.9 Y89.395 E3.31601
G1 X310.089 Y89.661 E3.33066
G1 X310.442 Y90.265 E3.36208
G1 X310.586 Y90.576 E3.37747
G1 X310.709 Y90.926 E3.39412
G1 X310.796 Y91.295 E3.41115
G1 X310.811 Y91.534 E3.4219
G1 X310.809 Y91.86 E3.43654
G1 X310.767 Y92.237 E3.45357
G1 X310.613 Y92.665 E3.47399
G1 X310.434 Y93.017 E3.49172
G1 X310.228 Y93.335 E3.50874
G1 X309.966 Y93.597 E3.52537
G1 X309.541 Y93.943 E3.54998
G1 X309.456 Y94.008 E3.55479
G1 X308.97 Y94.358 E3.58168
G1 X309.916 Y94.445 E3.62433
G1 X310.271 Y94.514 E3.64057
G1 X310.649 Y94.628 E3.6583
G1 X310.998 Y94.775 E3.6753
G1 X311.204 Y94.907 E3.68629
G1 X311.415 Y95.064 E3.6981
G1 X311.693 Y95.321 E3.7151
G1 X311.899 Y95.608 E3.73096
G1 X312.081 Y95.923 E3.74729
G1 X312.235 Y96.269 E3.7643
G1 X312.294 Y96.504 E3.77518
G1 X312.353 Y96.832 E3.79014
G1 X312.381 Y97.154 E3.80466
G1 X312.38 Y97.852 E3.836
G1 X312.345 Y98.202 E3.85179
G1 X312.272 Y98.567 E3.8685
G1 X312.159 Y98.929 E3.88553
G1 X312.052 Y99.138 E3.89607
G1 X311.887 Y99.414 E3.91051
G1 X311.659 Y99.717 E3.92754
G1 X311.313 Y100.006 E3.94778
G1 X310.979 Y100.22 E3.96559
G1 X310.64 Y100.389 E3.9826
G1 X310.279 Y100.484 E3.99936
G1 X309.727 Y100.568 E4.02443
G1 X309.62 Y100.58 E4.02927
G1 X308.969 Y100.64 E4.05862
G1 X309.055 Y100.703 E4.06341
G1 X309.685 Y101.157 E4.09828
G1 X309.953 Y101.393 E4.11431
G1 X310.226 Y101.687 E4.13233
G1 X310.453 Y101.99 E4.14933
G1 X310.561 Y102.203 E4.16005
G1 X310.663 Y102.441 E4.17167
G1 X310.775 Y102.803 E4.18869
G1 X310.809 Y103.174 E4.20542
G1 X310.804 Y103.542 E4.22194
G1 X310.759 Y103.919 E4.23899
G1 X310.693 Y104.141 E4.24939
G1 X310.579 Y104.45 E4.26418
G1 X310.44 Y104.742 E4.2787
G1 X310.084 Y105.345 E4.31014
G1 X309.878 Y105.627 E4.32582
G1 X309.634 Y105.901 E4.3423
G1 X309.354 Y106.156 E4.3593
G1 X309.147 Y106.287 E4.3703
G1 X308.855 Y106.445 E4.38521
G1 X308.504 Y106.589 E4.40224
G1 X308.062 Y106.661 E4.42235
G1 X307.671 Y106.675 E4.43992
G1 X307.293 Y106.648 E4.45693
G1 X306.944 Y106.549 E4.47322
G1 X306.437 Y106.348 E4.49771
G1 X306.329 Y106.302 E4.50298
G1 X306.262 Y106.27 E4.50632
G1 X306.419 Y106.51 E4.51919
G1 X306.584 Y106.827 E4.53524
G1 X306.73 Y107.192 E4.55289
G1 X306.833 Y107.557 E4.56992
G1 X306.858 Y107.799 E4.58084
G1 X306.867 Y108.062 E4.59266
G1 X306.84 Y108.44 E4.60968
G1 X306.737 Y108.798 E4.6264
G1 X306.599 Y109.14 E4.64296
G1 X306.421 Y109.474 E4.65996
G1 X306.288 Y109.647 E4.66975
G1 X306.075 Y109.892 E4.68433
G1 X305.832 Y110.124 E4.69942
G1 X305.281 Y110.559 E4.73094
G1 X304.985 Y110.749 E4.74673
G1 X304.656 Y110.917 E4.76332
G1 X304.302 Y111.053 E4.78034
G1 X304.074 Y111.098 E4.79078
G1 X303.75 Y111.141 E4.80546
G1 X303.371 Y111.151 E4.82248
G1 X302.927 Y111.059 E4.84284
G1 X302.555 Y110.931 E4.8605
G1 X302.212 Y110.771 E4.8775
G1 X301.92 Y110.552 E4.89389
G1 X301.8 Y110.441 E4.90123
G1 X301.825 Y110.549 E4.9062
G1 X301.876 Y110.943 E4.92404
G1 X301.885 Y111.322 E4.94106
G1 X301.851 Y111.551 E4.95146
G1 X301.796 Y111.808 E4.96326
G1 X301.678 Y112.168 E4.98027
G1 X301.493 Y112.488 E4.99687
G1 X301.276 Y112.787 E5.01346
G1 X301.022 Y113.069 E5.0305
G1 X300.84 Y113.212 E5.04089
G1 X300.573 Y113.396 E5.05545
G1 X300.285 Y113.558 E5.07029
G1 X299.641 Y113.845 E5.10194
G1 X299.317 Y113.954 E5.11729
G1 X298.961 Y114.037 E5.13371
G1 X298.585 Y114.084 E5.15072
G1 X298.344 Y114.072 E5.16156
G1 X298.018 Y114.034 E5.17629
G1 X297.648 Y113.951 E5.19332
G1 X297.235 Y113.749 E5.21396
G1 X296.906 Y113.532 E5.23166
G1 X296.613 Y113.291 E5.24869
G1 X296.465 Y113.108 E5.25926
G1 X296.452 Y113.343 E5.26983
G1 X296.391 Y113.717 E5.28684
G1 X296.312 Y113.947 E5.29776
G1 X296.21 Y114.187 E5.30947
G1 X296.025 Y114.518 E5.3265
G1 X295.786 Y114.794 E5.34289
G1 X295.516 Y115.048 E5.35954
G1 X295.215 Y115.277 E5.37652
G1 X295.007 Y115.385 E5.38704
G1 X294.709 Y115.516 E5.40166
G1 X294.404 Y115.619 E5.41611
G1 X293.723 Y115.782 E5.44756
G1 X293.377 Y115.83 E5.46324
G1 X293.006 Y115.845 E5.47991
G1 X292.628 Y115.82 E5.49692
G1 X292.392 Y115.763 E5.50782
G1 X292.081 Y115.665 E5.52246
G1 X291.734 Y115.513 E5.53947
G1 X291.37 Y115.241 E5.55988
G1 X291.086 Y114.966 E5.57763
G1 X290.843 Y114.675 E5.59465
G1 X290.791 Y114.578 E5.59959
G1 X290.766 Y114.693 E5.60488
G1 X290.646 Y115.053 E5.62192
G1 X290.53 Y115.269 E5.63292
G1 X290.39 Y115.491 E5.64471
G1 X290.155 Y115.789 E5.66175
G1 X289.874 Y116.023 E5.67817
G1 X289.569 Y116.229 E5.69469
G1 X289.235 Y116.407 E5.71169
G1 X289.022 Y116.477 E5.72176
G1 X288.708 Y116.56 E5.73634
G1 X288.381 Y116.615 E5.75123
G1 X287.68 Y116.667 E5.78279
G1 X287.327 Y116.659 E5.79864
G1 X286.961 Y116.614 E5.8152
G1 X286.592 Y116.528 E5.83221
G1 X286.383 Y116.44 E5.8424
G1 X286.09 Y116.295 E5.85708
G1 X285.77 Y116.092 E5.87409
G1 X285.448 Y115.762 E5.89479
G1 X285.211 Y115.446 E5.91253
G1 X285.017 Y115.121 E5.92952
G1 X284.993 Y115.051 E5.93285
G1 X284.963 Y115.129 E5.9366
G1 X284.791 Y115.466 E5.95359
G1 X284.648 Y115.656 E5.96427
G1 X284.477 Y115.855 E5.97605
G1 X284.201 Y116.115 E5.99307
G1 X283.861 Y116.319 E6.01088
G1 X283.483 Y116.492 E6.02954
G1 X283.124 Y116.612 E6.04654
G1 X282.727 Y116.655 E6.06447
G1 X282.198 Y116.653 E6.08822
G1 X282.046 Y116.646 E6.09505
G1 X281.505 Y116.598 E6.11944
G1 X281.088 Y116.51 E6.13858
G1 X280.777 Y116.405 E6.15331
G1 X280.433 Y116.247 E6.17031
G1 X280.256 Y116.127 E6.17991
G1 X280.036 Y115.958 E6.19237
G1 X279.762 Y115.697 E6.20936
G1 X279.548 Y115.385 E6.22635
G1 X279.361 Y115.038 E6.24405
G1 X279.218 Y114.687 E6.26107
G1 X279.198 Y114.579 E6.266
G1 X279.14 Y114.679 E6.27119
G1 X278.917 Y114.986 E6.28823
G1 X278.736 Y115.16 E6.2995
G1 X278.534 Y115.329 E6.31133
G1 X278.219 Y115.54 E6.32835
G1 X277.879 Y115.677 E6.34481
G1 X277.526 Y115.779 E6.36131
G1 X277.153 Y115.846 E6.37832
G1 X276.928 Y115.847 E6.38843
G1 X276.597 Y115.829 E6.40331
G1 X276.271 Y115.781 E6.41811
G1 X275.591 Y115.616 E6.44953
G1 X275.265 Y115.503 E6.46502
G1 X274.931 Y115.35 E6.48151
G1 X274.605 Y115.157 E6.49852
G1 X274.417 Y114.995 E6.50967
G1 X274.185 Y114.766 E6.5243
G1 X273.944 Y114.473 E6.54134
G1 X273.749 Y114.077 E6.56116
G1 X273.619 Y113.704 E6.57889
G1 X273.533 Y113.335 E6.59591
G1 X273.528 Y113.106 E6.60619
G1 X273.366 Y113.294 E6.61733
G1 X273.09 Y113.553 E6.63433
G1 X272.765 Y113.749 E6.65137
G1 X272.448 Y113.897 E6.66708
G1 X272.09 Y114.02 E6.68408
G1 X271.764 Y114.064 E6.69885
G1 X271.436 Y114.078 E6.71359
G1 X271.058 Y114.055 E6.73059
G1 X270.738 Y113.97 E6.74546
G1 X270.24 Y113.787 E6.76928
G1 X270.106 Y113.731 E6.7758
G1 X269.617 Y113.505 E6.79999
G1 X269.25 Y113.279 E6.81934
G1 X268.994 Y113.075 E6.83404
G1 X268.724 Y112.809 E6.85106
G1 X268.603 Y112.642 E6.86032
G1 X268.451 Y112.406 E6.87292
G1 X268.28 Y112.067 E6.88997
G1 X268.183 Y111.691 E6.90741
G1 X268.126 Y111.3 E6.92515
G1 X268.111 Y110.921 E6.94218
G1 X268.171 Y110.566 E6.95835
G1 X268.204 Y110.447 E6.96389
G1 X268.096 Y110.539 E6.97026
G1 X267.774 Y110.764 E6.9879
G1 X267.442 Y110.948 E7.00494
G1 X267.213 Y111.027 E7.01582
G1 X266.958 Y111.096 E7.02768
G1 X266.584 Y111.155 E7.04468
G1 X266.209 Y111.136 E7.06154
G1 X265.846 Y111.079 E7.07804
G1 X265.48 Y110.981 E7.09505
G1 X265.285 Y110.893 E7.10466
G1 X264.993 Y110.739 E7.11948
G1 X264.71 Y110.554 E7.13466
G1 X264.161 Y110.116 E7.1662
G1 X263.909 Y109.871 E7.18198
G1 X263.674 Y109.593 E7.19832
G1 X263.462 Y109.279 E7.21534
G1 X263.365 Y109.067 E7.2258
G1 X263.249 Y108.76 E7.24054
G1 X263.153 Y108.394 E7.25753
G1 X263.143 Y107.938 E7.27801
G1 X263.184 Y107.544 E7.2958
G1 X263.262 Y107.173 E7.31282
G1 X263.408 Y106.843 E7.32902
G1 X263.669 Y106.382 E7.35281
G1 X263.725 Y106.289 E7.35768
G1 X263.738 Y106.27 E7.35872
G1 X263.416 Y106.422 E7.3747
G1 X263.075 Y106.543 E7.39095
G1 X262.693 Y106.637 E7.40862
G1 X262.318 Y106.688 E7.42561
G1 X262.073 Y106.679 E7.43662
G1 X261.809 Y106.651 E7.44854
G1 X261.439 Y106.572 E7.46552
G1 X261.114 Y106.429 E7.48147
G1 X260.795 Y106.249 E7.49791
G1 X260.487 Y106.029 E7.51491
G1 X260.315 Y105.855 E7.52589
G1 X260.1 Y105.605 E7.5407
G1 X259.911 Y105.339 E7.55535
G1 X259.558 Y104.735 E7.58676
G1 X259.414 Y104.424 E7.60215
G1 X259.291 Y104.074 E7.61881
G1 X259.204 Y103.705 E7.63583
G1 X259.189 Y103.466 E7.64659
G1 X259.191 Y103.14 E7.66122
G1 X259.233 Y102.763 E7.67826
G1 X259.387 Y102.335 E7.69868
G1 X259.566 Y101.983 E7.71641
G1 X259.772 Y101.665 E7.73342
G1 X260.034 Y101.403 E7.75006
G1 X260.459 Y101.057 E7.77467
G1 X260.544 Y100.992 E7.77947
G1 X261.03 Y100.642 E7.80637
G1 X260.084 Y100.555 E7.84902
G1 X259.729 Y100.486 E7.86526
G1 X259.351 Y100.372 E7.88299
G1 X259.002 Y100.225 E7.89999
G1 X258.796 Y100.093 E7.91098
G1 X258.585 Y99.936 E7.92279
G1 X258.307 Y99.679 E7.93978
G1 X258.1 Y99.39 E7.95575
G1 X257.918 Y99.074 E7.97212
G1 X257.765 Y98.728 E7.98911
G1 X257.707 Y98.496 E7.99985
G1 X257.648 Y98.169 E8.01476
G1 X257.619 Y97.846 E8.02933
G1 X257.62 Y97.148 E8.06067
G1 X257.655 Y96.798 E8.07646
G1 X257.728 Y96.433 E8.09317
G1 X257.841 Y96.071 E8.1102
G1 X257.949 Y95.861 E8.12081
G1 X258.115 Y95.584 E8.13531
G1 X258.343 Y95.281 E8.15233
G1 X258.689 Y94.993 E8.17255
